icons/lines/lock.svg

<svg xmlns="http://www.w3.org/2000/svg" width="24" height="24" viewBox="0 0 24 24" fill="none" stroke="currentColor" stroke-width="2" stroke-linecap="round" stroke-linejoin="round">
  <path d="M11.996 16h.01" />
  <path d="M15.997 16h.01" />
  <path d="M6 10V8c0-3.31 1-6 6-6s6 2.69 6 6v2" />
  <path d="M7 22c-4 0-5-1-5-5v-2c0-4 1-5 5-5h10c4 0 5 1 5 5v2c0 4-1 5-5 5z" />
  <path d="M7.995 16h.01" />
</svg>

<svg xmlns="http://www.w3.org/2000/svg" width="24" height="24" viewBox="0 0 24 24" fill="none" stroke="currentColor" stroke-width="2" stroke-linecap="round" stroke-linejoin="round" >
  <path d="M6 10V8C6 4.69 7 2 12 2C17 2 18 4.69 18 8V10"/>
  <path d="M17 22H7C3 22 2 21 2 17V15C2 11 3 10 7 10H17C21 10 22 11 22 15V17C22 21 21 22 17 22Z"/>
  <path d="M15.9965 16H16.0054"/>
  <path d="M11.9955 16H12.0045"/>
  <path d="M7.99451 16H8.00349"/>
  </svg>
